icons/Map/roadster-line.svg

<svg viewBox="0 0 24 24" xmlns="http://www.w3.org/2000/svg"><path d="M19 20H5V21C5 21.5523 4.55228 22 4 22H3C2.44772 22 2 21.5523 2 21V13.5L0.757464 13.1894C0.312297 13.0781 0 12.6781 0 12.2192V11.5C0 11.2239 0.223858 11 0.5 11H2L4.4805 5.21216C4.79566 4.47679 5.51874 4 6.31879 4H17.6812C18.4813 4 19.2043 4.47679 19.5195 5.21216L22 11H23.5C23.7761 11 24 11.2239 24 11.5V12.2192C24 12.6781 23.6877 13.0781 23.2425 13.1894L22 13.5V21C22 21.5523 21.5523 22 21 22H20C19.4477 22 19 21.5523 19 21V20ZM20 18V13H4V18H20ZM5.47703 11H18.523C18.6502 11 18.7762 10.9757 18.8944 10.9285C19.4071 10.7234 19.6566 10.1414 19.4514 9.62861L18 6H6L4.54856 9.62861C4.50131 9.74673 4.47703 9.87278 4.47703 10C4.47703 10.5523 4.92475 11 5.47703 11ZM5 14C7.31672 14 8.87868 14.7548 9.68588 16.2643L9.68582 16.2643C9.81602 16.5078 9.72418 16.8107 9.4807 16.9409C9.40818 16.9797 9.3272 17 9.24496 17H6C5.44772 17 5 16.5523 5 16V14ZM19 14V16C19 16.5523 18.5523 17 18 17H14.755C14.6728 17 14.5918 16.9797 14.5193 16.9409C14.2758 16.8107 14.184 16.5078 14.3142 16.2643L14.3141 16.2643C15.1213 14.7548 16.6833 14 19 14Z"/></svg>

<svg xmlns="http://www.w3.org/2000/svg" viewBox="0 0 24 24">
    <g>
        <path fill="none" d="M0 0h24v24H0z"/>
        <path d="M19 20H5v1a1 1 0 0 1-1 1H3a1 1 0 0 1-1-1v-7.5l-1.243-.31A1 1 0 0 1 0 12.22v-.72a.5.5 0 0 1 .5-.5H2l2.48-5.788A2 2 0 0 1 6.32 4H17.68a2 2 0 0 1 1.838 1.212L22 11h1.5a.5.5 0 0 1 .5.5v.72a1 1 0 0 1-.757.97L22 13.5V21a1 1 0 0 1-1 1h-1a1 1 0 0 1-1-1v-1zm1-2v-5H4v5h16zM5.477 11h13.046a1 1 0 0 0 .928-1.371L18 6H6L4.549 9.629A1 1 0 0 0 5.477 11zM5 14c2.317 0 3.879.755 4.686 2.264a.5.5 0 0 1-.441.736H6a1 1 0 0 1-1-1v-2zm14 0v2a1 1 0 0 1-1 1h-3.245a.5.5 0 0 1-.44-.736C15.12 14.754 16.682 14 19 14z"/>
    </g>
</svg>
